images/right-arrow.svg

<svg fill="none" height="43" viewBox="0 0 63 43" width="63" xmlns="http://www.w3.org/2000/svg"><path d="m-.00001502 17.502h49.59501502l-12.53-12.56505 4.935-4.93499687 21 21.00004687-21 21-4.935-4.935 12.53-12.565h-49.59501502z" fill="#4f4f4f"/></svg>

<svg width="63" height="43" viewBox="0 0 63 43" fill="none" xmlns="http://www.w3.org/2000/svg">
<path d="M-1.50204e-05 17.502L49.595 17.502L37.065 4.93695L42 0.00195313L63 21.002L42 42.002L37.065 37.067L49.595 24.502L-1.50204e-05 24.502V17.502Z" fill="#4F4F4F"/>
</svg>
